packages/dnb-ui-lib/assets/icons/information_circled.svg

<svg width="17" height="17" viewBox="0 0 17 17" fill="none" xmlns="http://www.w3.org/2000/svg">
<path fill-rule="evenodd" clip-rule="evenodd" d="M1.59333 8.5C1.59333 4.68555 4.68555 1.59333 8.5 1.59333C12.3145 1.59333 15.4067 4.68555 15.4067 8.5C15.4067 12.3145 12.3145 15.4067 8.5 15.4067C4.68555 15.4067 1.59333 12.3145 1.59333 8.5ZM8.5 0C3.80558 0 0 3.80558 0 8.5C0 13.1944 3.80558 17 8.5 17C13.1944 17 17 13.1944 17 8.5C17 3.80558 13.1944 0 8.5 0ZM7.47289 6.67622C7.0329 6.67622 6.67622 7.0329 6.67622 7.47289C6.67622 7.91287 7.0329 8.26955 7.47289 8.26955H7.70334V10.5542C7.70334 11.5615 8.51987 12.378 9.52711 12.378H10.0407C10.4807 12.378 10.8373 12.0213 10.8373 11.5813C10.8373 11.1413 10.4807 10.7847 10.0407 10.7847H9.52711C9.39984 10.7847 9.29666 10.6815 9.29666 10.5542V7.98644C9.29666 7.26283 8.71006 6.67622 7.98644 6.67622H7.47289ZM8.15764 5.76102C8.53581 5.76102 8.84238 5.45445 8.84238 5.07627C8.84238 4.6981 8.53581 4.39153 8.15764 4.39153C7.77947 4.39153 7.4729 4.6981 7.4729 5.07627C7.4729 5.45445 7.77947 5.76102 8.15764 5.76102Z" fill="black"/>
</svg>

<svg width="16" height="16" viewBox="0 0 17 17" fill="none" xmlns="http://www.w3.org/2000/svg"><path fill-rule="evenodd" clip-rule="evenodd" d="M1.593 8.5a6.907 6.907 0 1113.814 0 6.907 6.907 0 01-13.814 0zM8.5 0a8.5 8.5 0 100 17 8.5 8.5 0 000-17zM7.473 6.676a.797.797 0 100 1.594h.23v2.284c0 1.008.817 1.824 1.824 1.824h.514a.797.797 0 000-1.593h-.514a.23.23 0 01-.23-.23V7.985a1.31 1.31 0 00-1.31-1.31h-.514zm.685-.915a.685.685 0 100-1.37.685.685 0 000 1.37z" fill="#000"/></svg>
